src/main/resources/assets/odin/MovementIcon.svg

<?xml version="1.0" encoding="UTF-8"?>
<svg xmlns="http://www.w3.org/2000/svg" version="1.1" width="200px" height="200px"
     style="shape-rendering:geometricPrecision; text-rendering:geometricPrecision; image-rendering:optimizeQuality; fill-rule:evenodd; clip-rule:evenodd">
    <g>
        <path style="opacity:0.927" fill="#fefffe"
              d="M 98.5,4.5 C 108.132,13.6311 117.632,22.9644 127,32.5C 127.667,40.8333 127.667,49.1667 127,57.5C 121,51.5 115,45.5 109,39.5C 108.5,56.1633 108.333,72.83 108.5,89.5C 125.503,89.6666 142.503,89.4999 159.5,89C 153.5,83 147.5,77 141.5,71C 149.833,70.3333 158.167,70.3333 166.5,71C 175.53,80.3639 184.863,89.3639 194.5,98C 185.167,107.333 175.833,116.667 166.5,126C 158.167,126.667 149.833,126.667 141.5,126C 147.5,120 153.5,114 159.5,108C 142.503,107.5 125.503,107.333 108.5,107.5C 108.333,124.837 108.5,142.17 109,159.5C 115,153.5 121,147.5 127,141.5C 127.667,149.833 127.667,158.167 127,166.5C 117.667,175.833 108.333,185.167 99,194.5C 90,185.167 81,175.833 72,166.5C 71.3333,158.167 71.3333,149.833 72,141.5C 78,147.5 84,153.5 90,159.5C 90.4999,142.17 90.6666,124.837 90.5,107.5C 73.4967,107.333 56.4967,107.5 39.5,108C 45.5,114 51.5,120 57.5,126C 49.1667,126.667 40.8333,126.667 32.5,126C 23.1667,116.667 13.8333,107.333 4.5,98C 14.137,89.3639 23.4703,80.3639 32.5,71C 40.8333,70.3333 49.1667,70.3333 57.5,71C 51.5,77 45.5,83 39.5,89C 56.4967,89.4999 73.4967,89.6666 90.5,89.5C 90.6666,72.83 90.4999,56.1633 90,39.5C 84,45.5 78,51.5 72,57.5C 71.3333,48.8333 71.3333,40.1667 72,31.5C 81.0356,22.6317 89.869,13.6317 98.5,4.5 Z"/>
    </g>
</svg>

<svg xmlns="http://www.w3.org/2000/svg" width="200" height="200" style="shape-rendering:geometricPrecision;text-rendering:geometricPrecision;image-rendering:optimizeQuality;fill-rule:evenodd;clip-rule:evenodd"><path fill="#fefffe" d="M98.5 4.5a1123.663 1123.663 0 0 1 28.5 28c.667 8.333.667 16.667 0 25l-18-18c-.5 16.663-.667 33.33-.5 50 17.003.167 34.003 0 51-.5l-18-18a156.492 156.492 0 0 1 25 0 533.725 533.725 0 0 0 28 27l-28 28c-8.333.667-16.667.667-25 0l18-18c-16.997-.5-33.997-.667-51-.5-.167 17.337 0 34.67.5 52l18-18c.667 8.333.667 16.667 0 25l-28 28-27-28a156.492 156.492 0 0 1 0-25l18 18c.5-17.33.667-34.663.5-52-17.003-.167-34.003 0-51 .5l18 18c-8.333.667-16.667.667-25 0l-28-28a533.608 533.608 0 0 0 28-27 156.492 156.492 0 0 1 25 0l-18 18c16.997.5 33.997.667 51 .5.167-16.67 0-33.337-.5-50l-18 18a169.242 169.242 0 0 1 0-26 1008.164 1008.164 0 0 0 26.5-27Z" style="opacity:.927"/></svg>
